X: 183
T: SLIDE: If I Had a Wife or Mad Dancing
T: Nellie Mahony's
C: C: Trad.; S: Denis Murphy
C: Set Leaders: Anton, Sophie
Z: Anton Zille ed.; Dr. Dow at The Session
N: https://thesession.org/members/26966/sets/94458
R: Slide
M: 12/8
L: 1/8
Q: 3/8=130
K: Gmaj
|:B2A ABd e2d d2B|AGA B2A G2D D2A|
B2A ABd e2d d2B|1 AGA B2A G3 G2A:|2 AGA B2A G3 G2B||
|:d2g gfg age dBd|e2a aba g2a bge|
d2g gfg age dBd|1 efg aba g3 gfe:|2 efg aba g3 g3||

